site/static/images/icons/list_icon_circle.svg

<svg fill="none" height="48" viewBox="0 0 48 48" width="48" xmlns="http://www.w3.org/2000/svg" xmlns:xlink="http://www.w3.org/1999/xlink"><clipPath id="a"><path d="m0 0h48v48h-48z"/></clipPath><g clip-path="url(#a)"><path d="m24 48c13.2548 0 24-10.7452 24-24s-10.7452-24-24-24-24 10.7452-24 24 10.7452 24 24 24z" fill="#ddd" fill-opacity=".2"/><path clip-rule="evenodd" d="m15.125 18.25c.4144 0 .8118-.1646 1.1049-.4576.293-.2931.4576-.6905.4576-1.1049s-.1646-.8118-.4576-1.1049c-.2931-.293-.6905-.4576-1.1049-.4576s-.8118.1646-1.1049.4576c-.293.2931-.4576.6905-.4576 1.1049s.1646.8118.4576 1.1049c.2931.293.6905.4576 1.1049.4576zm5.8594-2.3438c-.3108 0-.6089.1235-.8287.3433-.2197.2198-.3432.5178-.3432.8286s.1235.6089.3432.8287c.2198.2197.5179.3432.8287.3432h13.2812c.3108 0 .6089-.1235.8287-.3432.2197-.2198.3432-.5179.3432-.8287s-.1235-.6088-.3432-.8286c-.2198-.2198-.5179-.3433-.8287-.3433zm0 7.8126c-.3108 0-.6089.1234-.8287.3432-.2197.2198-.3432.5178-.3432.8286s.1235.6089.3432.8287c.2198.2197.5179.3432.8287.3432h13.2812c.3108 0 .6089-.1235.8287-.3432.2197-.2198.3432-.5179.3432-.8287s-.1235-.6088-.3432-.8286c-.2198-.2198-.5179-.3432-.8287-.3432zm0 7.8124c-.3108 0-.6089.1235-.8287.3433-.2197.2198-.3432.5178-.3432.8286s.1235.6089.3432.8287c.2198.2197.5179.3432.8287.3432h13.2812c.3108 0 .6089-.1235.8287-.3432.2197-.2198.3432-.5179.3432-.8287s-.1235-.6088-.3432-.8286c-.2198-.2198-.5179-.3433-.8287-.3433zm-4.2969-7.0312c0 .4144-.1646.8118-.4576 1.1049-.2931.293-.6905.4576-1.1049.4576s-.8118-.1646-1.1049-.4576c-.293-.2931-.4576-.6905-.4576-1.1049s.1646-.8118.4576-1.1049c.2931-.293.6905-.4576 1.1049-.4576s.8118.1646 1.1049.4576c.293.2931.4576.6905.4576 1.1049zm-1.5625 9.375c.4144 0 .8118-.1646 1.1049-.4576.293-.2931.4576-.6905.4576-1.1049s-.1646-.8118-.4576-1.1049c-.2931-.293-.6905-.4576-1.1049-.4576s-.8118.1646-1.1049.4576c-.293.2931-.4576.6905-.4576 1.1049s.1646.8118.4576 1.1049c.2931.293.6905.4576 1.1049.4576z" fill="#0075ff" fill-rule="evenodd"/></g></svg>

<svg width="48" height="48" viewBox="0 0 48 48" fill="none" xmlns="http://www.w3.org/2000/svg">
<g clip-path="url(#clip0_1204_598)">
<path d="M24 48C37.2548 48 48 37.2548 48 24C48 10.7452 37.2548 0 24 0C10.7452 0 0 10.7452 0 24C0 37.2548 10.7452 48 24 48Z" fill="#DDDDDD" fill-opacity="0.2"/>
<path fill-rule="evenodd" clip-rule="evenodd" d="M15.125 18.25C15.5394 18.25 15.9368 18.0854 16.2299 17.7924C16.5229 17.4993 16.6875 17.1019 16.6875 16.6875C16.6875 16.2731 16.5229 15.8757 16.2299 15.5826C15.9368 15.2896 15.5394 15.125 15.125 15.125C14.7106 15.125 14.3132 15.2896 14.0201 15.5826C13.7271 15.8757 13.5625 16.2731 13.5625 16.6875C13.5625 17.1019 13.7271 17.4993 14.0201 17.7924C14.3132 18.0854 14.7106 18.25 15.125 18.25V18.25ZM20.9844 15.9062C20.6736 15.9062 20.3755 16.0297 20.1557 16.2495C19.936 16.4693 19.8125 16.7673 19.8125 17.0781C19.8125 17.3889 19.936 17.687 20.1557 17.9068C20.3755 18.1265 20.6736 18.25 20.9844 18.25H34.2656C34.5764 18.25 34.8745 18.1265 35.0943 17.9068C35.314 17.687 35.4375 17.3889 35.4375 17.0781C35.4375 16.7673 35.314 16.4693 35.0943 16.2495C34.8745 16.0297 34.5764 15.9062 34.2656 15.9062H20.9844ZM20.9844 23.7188C20.6736 23.7188 20.3755 23.8422 20.1557 24.062C19.936 24.2818 19.8125 24.5798 19.8125 24.8906C19.8125 25.2014 19.936 25.4995 20.1557 25.7193C20.3755 25.939 20.6736 26.0625 20.9844 26.0625H34.2656C34.5764 26.0625 34.8745 25.939 35.0943 25.7193C35.314 25.4995 35.4375 25.2014 35.4375 24.8906C35.4375 24.5798 35.314 24.2818 35.0943 24.062C34.8745 23.8422 34.5764 23.7188 34.2656 23.7188H20.9844ZM20.9844 31.5312C20.6736 31.5312 20.3755 31.6547 20.1557 31.8745C19.936 32.0943 19.8125 32.3923 19.8125 32.7031C19.8125 33.0139 19.936 33.312 20.1557 33.5318C20.3755 33.7515 20.6736 33.875 20.9844 33.875H34.2656C34.5764 33.875 34.8745 33.7515 35.0943 33.5318C35.314 33.312 35.4375 33.0139 35.4375 32.7031C35.4375 32.3923 35.314 32.0943 35.0943 31.8745C34.8745 31.6547 34.5764 31.5312 34.2656 31.5312H20.9844ZM16.6875 24.5C16.6875 24.9144 16.5229 25.3118 16.2299 25.6049C15.9368 25.8979 15.5394 26.0625 15.125 26.0625C14.7106 26.0625 14.3132 25.8979 14.0201 25.6049C13.7271 25.3118 13.5625 24.9144 13.5625 24.5C13.5625 24.0856 13.7271 23.6882 14.0201 23.3951C14.3132 23.1021 14.7106 22.9375 15.125 22.9375C15.5394 22.9375 15.9368 23.1021 16.2299 23.3951C16.5229 23.6882 16.6875 24.0856 16.6875 24.5ZM15.125 33.875C15.5394 33.875 15.9368 33.7104 16.2299 33.4174C16.5229 33.1243 16.6875 32.7269 16.6875 32.3125C16.6875 31.8981 16.5229 31.5007 16.2299 31.2076C15.9368 30.9146 15.5394 30.75 15.125 30.75C14.7106 30.75 14.3132 30.9146 14.0201 31.2076C13.7271 31.5007 13.5625 31.8981 13.5625 32.3125C13.5625 32.7269 13.7271 33.1243 14.0201 33.4174C14.3132 33.7104 14.7106 33.875 15.125 33.875V33.875Z" fill="#0075ff"/>
</g>
<defs>
<clipPath id="clip0_1204_598">
<rect width="48" height="48" fill="white"/>
</clipPath>
</defs>
</svg>
